X:57
T: Roddy McCorley
O: Trad
M: 2/4
L: 1/8
K: D
de [| "D"f2 ef | A2 de | "Bm"f3 e | d3 c | "G"B2 d2 | "A7"d2 e2 | "D"d4- | d2 |]
fg |: "D"a2 a2 | a2 fa | "G"b2 b2 | "D"a2 fe | "Bm"d2 B2 | "Em"g3 f | "A7"e4- | e2 :|
de [| "D"f2 ef | A2 de | "Bm"f3 e | d3 c | "G"B2 d2 | "A7"d2 e2 | "D"d4- | d2 |]
% ----------------------------------------------------------------------------
